!!!COM: Palestrina, Giovanni Perluigi da
!!!OPR: In festis Apostolorum (II)
!!!OTL: Kyrie
**kern	**kern	**kern	**kern	**kern
*Ibass	*Itenor	*Itenor	*Icalto	*Icant
!Bassus	!Tenor 2	!Tenor 1	!Altus	!Cantus
*clefF4	*clefGv2	*clefGv2	*clefG2	*clefG2
*k[]	*k[]	*k[]	*k[]	*k[]
*D:dor	*D:dor	*D:dor	*D:dor	*D:dor
*M4/2	*M4/2	*M4/2	*M4/2	*M4/2
=1	=1	=1	=1	=1
0r	0r	0r	1d	0r
.	.	.	2d	.
.	.	.	2c	.
=2	=2	=2	=2	=2
0r	0r	0r	2d	1a
.	.	.	1f	.
.	.	.	.	2a
.	.	.	2e	2g
=3	=3	=3	=3	=3
0r	2r	0r	2d	2a
.	2A	.	4c	1cc
.	.	.	4d	.
.	2A	.	4e	.
.	.	.	4f	.
.	2G	.	2g	2b
=4	=4	=4	=4	=4
0r	2A	0r	2f	2a
.	1c	.	1e	2g
.	.	.	.	2a
.	2B	.	2d	2g
=5	=5	=5	=5	=5
0r	2A	0r	2c	4f
.	.	.	.	4e
.	2G	.	1d	4g
.	.	.	.	4f
.	1A	.	.	4e
.	.	.	.	4d
.	.	.	2c#	2e
=6	=6	=6	=6	=6
1D	2.F	0r	2d	1.d
.	.	.	1f	.
.	8E	.	.	.
.	8D	.	.	.
2D	1A	.	.	.
2C	.	.	2e	2e
=7	=7	=7	=7	=7
2D	2.F	1A	2d	4f
.	.	.	.	4g
1F	.	.	2.c	4a
.	4G	.	.	4b
.	4A	2A	.	1cc
.	4B	.	4d	.
2E	2c	2G	2e	.
=8	=8	=8	=8	=8
2D	2d	2A	2f	0r
4C	2G	1c	2e	.
4D	.	.	.	.
4E	1G	.	2r	.
4F	.	.	.	.
2G	.	2B	2d	.
=9	=9	=9	=9	=9
2F	0r	2A	2d	1r
2E	.	2G	2c	.
2.D	.	2A	2d	2r
.	.	2d	[2f	[2a
4E	.	.	.	.
=10	=10	=10	=10	=10
2F	1r	2.c	2f]	2a]
2C	.	.	2e	2g
.	.	4B	.	.
1D	2r	[1A	4d	2f
.	.	.	4e	.
.	[2d	.	4f	2d
.	.	.	4g	.
=11	=11	=11	=11	=11
1AA	2d]	1A]	1a	1e
.	2c	.	.	.
1r	2B-	2r	1d	2f
.	2G	[2d	.	2g
=12	=12	=12	=12	=12
2r	1A	2d]	0r	2e
1A	.	2c	.	2a
.	2F	2A	.	2cc
2G	2G	2B	.	[2b
=13	=13	=13	=13	=13
2F	1A	2c	1r	4b]
.	.	.	.	4a
2D	.	2d	.	1a
2.E	2r	1B	[1e	.
.	2E	.	.	2g#
4D	.	.	.	.
=14	=14	=14	=14	=14
2C	2E	0A	2e]	1a
2D	2F	.	2d	.
1AA	1E	.	2c	2r
.	.	.	2A	2e
=15	=15	=15	=15	=15
0r	1E	1r	2B	2.g
.	.	.	2e	.
.	.	.	.	4a
.	1r	2r	2g	2b
.	.	2A	2a	[2cc
=16	=16	=16	=16	=16
0r	0r	2c	2e	2cc]
.	.	2d	2f#	4b
.	.	.	.	4a
.	.	1G	4g	4b
.	.	.	4f	4a
.	.	.	4e	4g
.	.	.	4d	4f
=17	=17	=17	=17	=17
0r	0r	2A	4c	2.e
.	.	.	4d	.
.	.	1c	1e	.
.	.	.	.	4f
.	.	.	.	4g
.	.	.	.	4f
.	.	2B	[2d	4e
.	.	.	.	4d
=18	=18	=18	=18	=18
0r	1r	1A	2d]	2e
.	.	.	2c	2e
.	2r	2G	2B	2.g
.	2E	2c	2e	.
.	.	.	.	4a
=19	=19	=19	=19	=19
0r	2G	2B	2d	2b
.	2A	2e	2c	2cc
.	1D	2.d	1f	2b
.	.	.	.	2a
.	.	4c	.	.
=20	=20	=20	=20	=20
0r	2E	2.B	2e	2.g
.	1G	.	2B	.
.	.	4A	.	4a
.	.	2G	1d	2b
.	2F	2A	.	[2a
=21	=21	=21	=21	=21
1r	1E	1B	1e	2a]
.	.	.	.	2g#
2r	2.e	[1A	2.c	[1a
2AA	.	.	.	.
.	4d	.	4d	.
=22	=22	=22	=22	=22
2C	2c	1A]	2e	1a]
2D	2A	.	2f	.
1GG	1B-	1r	1d	1g
=23	=23	=23	=23	=23
2AA	2A	2r	1c	2f
1C	2.G	2E	.	1e
.	.	1G	1r	.
.	4F	.	.	.
2BB-	2D	.	.	[2d
=24	=24	=24	=24	=24
1AA	2E	1A	2r	2d]
.	2A	.	2e	2c#
[1GG	2.B-	1D	2.g	1d
.	4A	.	4f	.
=25	=25	=25	=25	=25
1GG]	2G	2E	2e	1r
.	2B-	1G	2d	.
[1AA	1A	.	2c#	2r
.	.	2F	[2d	2a
=26	=26	=26	=26	=26
1AA]	2.A	1E	2d]	2a
.	.	.	2c#	1a
.	4G	.	.	.
1BB-	4F	1D	1d	.
.	4D	.	.	.
.	2d	.	.	2g
=27	=27	=27	=27	=27
0AA	2c#	2E	2r	0a
.	1d	2F	2A	.
.	.	1E	1e	.
.	2c#	.	.	.
=28	=28	=28	=28	=28
[0D	[0d	[0D	[0f#	[0a
=29	=29	=29	=29	=29
0D]	0d]	0D]	0f#]	0a]
=30	=30	=30	=30	=30
0r	0r	1A	0r	0r
.	.	2A	.	.
.	.	2G	.	.
=31	=31	=31	=31	=31
0r	0r	1A	1e	0r
.	.	2G	2e	.
.	.	2F	2d	.
=32	=32	=32	=32	=32
0r	0r	2G	1e	0r
.	.	2A	.	.
.	.	2F	2d	.
.	.	2E	2c	.
=33	=33	=33	=33	=33
0r	0r	4D	2d	1a
.	.	4E	.	.
.	.	4F	4A	.
.	.	4G	4B	.
.	.	4A	4c	2a
.	.	4B	4d	.
.	.	2c	2e	2g
=34	=34	=34	=34	=34
0r	0r	4F	2.c	1a
.	.	4G	.	.
.	.	4A	.	.
.	.	4B	4d	.
.	.	2c	2e	2g
.	.	2d	[2f	2f
=35	=35	=35	=35	=35
1r	0r	1.c	2f]	1g
.	.	.	4e	.
.	.	.	4d	.
1A	.	.	1e	2r
.	.	4A	.	[2cc
.	.	4B	.	.
=36	=36	=36	=36	=36
2A	0r	4c	2f	2cc]
.	.	4A	.	.
2G	.	1d	2g	2b
1A	.	.	1e	1a
.	.	2c	.	.
=37	=37	=37	=37	=37
2G	0r	2B	2r	1d
2F	.	2A	2d	.
2G	.	2B	2d	1e
2A	.	[2A	2c	.
=38	=38	=38	=38	=38
2F	1r	2A]	2d	2f
2E	.	2B	2e	2g
1D	1A	2.d	1f	1a
.	.	4c	.	.
=39	=39	=39	=39	=39
1E	2A	1B	1.e	2r
.	2G	.	.	2b
1AA	1A	2A	.	2cc
.	.	2c	2f	2a
=40	=40	=40	=40	=40
0r	2G	1d	2g	2b
.	2F	.	2a	1dd
.	1G	2B	[1g	.
.	.	2e	.	[2cc
=41	=41	=41	=41	=41
1GG	2G	1d	1g]	2cc]
.	2d	.	.	2b
2C	2e	1c	2r	1cc
2C	2c	.	2e	.
=42	=42	=42	=42	=42
2BB	2d	1G	2d	1r
2C	2e	.	2c	.
1GG	1B	2r	2d	2r
.	.	2d	2G	[2g
=43	=43	=43	=43	=43
1r	2r	2e	1c	2g]
.	2A	2c	.	2a
2r	2D	2d	1r	2f
2G	2C	[2e	.	2g
=44	=44	=44	=44	=44
2A	2.c	2e]	0r	2e
2F	.	2A	.	2cc
.	4d	.	.	.
2G	[1e	2B	.	2b
2A	.	2c	.	[2a
=45	=45	=45	=45	=45
1E	1e]	2.B	0r	2a]
.	.	.	.	2g
.	.	4c	.	.
1D	2A	1d	.	1f
.	[2d	.	.	.
=46	=46	=46	=46	=46
1E	4d]	[0G	1r	1e
.	4c	.	.	.
.	1c	.	.	.
1G	.	.	2r	1d
.	2B	.	2d	.
=47	=47	=47	=47	=47
1C	2c	0G]	2e	0g
.	2e	.	2c	.
2r	2B	.	2d	.
2C	2c	.	2e	.
=48	=48	=48	=48	=48
2G	1.d	1r	4B	2r
.	.	.	4c	.
2G	.	.	4d	2g
.	.	.	4e	.
1F	.	2r	1f	2a
.	[2c	2A	.	2f
=49	=49	=49	=49	=49
2E	4c]	2G	2c	2g
.	4B	.	.	.
2F	2A	2F	2.c	2a
1C	[1G	2G	.	1e
.	.	.	4d	.
.	.	[2c	4e	.
.	.	.	4f	.
=50	=50	=50	=50	=50
2r	1G]	2c]	1g	1d
2G	.	2B	.	.
2G	1C	1c	2r	[1e
2A	.	.	[2c	.
=51	=51	=51	=51	=51
1G	2r	0d	2c]	1e]
.	2G	.	2B	.
1D	2A	.	2A	1f
.	2F	.	[2d	.
=52	=52	=52	=52	=52
0r	2G	2r	2d]	1e
.	2A	2A	2c	.
.	2D	2A	2d	1d
.	[2d	2F	2A	.
=53	=53	=53	=53	=53
1r	2d]	2G	2r	1e
.	2c	2A	2A	.
2r	2.d	2D	2A	1f
2D	.	2A	2F	.
.	4c	.	.	.
=54	=54	=54	=54	=54
2E	2B	2G	2G	1e
2C	2c	2E	1A	.
2D	2A	2F	.	1d
2BB	2G	2D	2B	.
=55	=55	=55	=55	=55
0AA	0A	2E	2c#	0a
.	.	2F	1d	.
.	.	1E	.	.
.	.	.	2c#	.
=56	=56	=56	=56	=56
[0D	[0A	[0D	[0d	[0f#
=57	=57	=57	=57	=57
0D]	0A]	0D]	0d]	0f#]
=58	=58	=58	=58	=58
0r	0r	0r	1A	1r
.	.	.	1d	1d
=59	=59	=59	=59	=59
0r	0r	0r	2d	1a
.	.	.	2c	.
.	.	.	2d	1a
.	.	.	2f	.
=60	=60	=60	=60	=60
0r	1r	0r	2.e	1g
.	.	.	8d	.
.	.	.	8e	.
.	1D	.	2f	1a
.	.	.	2d	.
=61	=61	=61	=61	=61
0r	1A	0r	2e	1.cc
.	.	.	4A	.
.	.	.	4B	.
.	1A	.	4c	.
.	.	.	4d	.
.	.	.	4e	4b
.	.	.	4f	4a
=62	=62	=62	=62	=62
0r	1G	0r	2g	1b
.	.	.	2d	.
.	1A	.	2f	2a
.	.	.	4e	[2cc
.	.	.	4d	.
=63	=63	=63	=63	=63
0r	2.c	0r	2.e	4cc]
.	.	.	.	4b
.	.	.	.	4g
.	4B	.	4f	4a
.	2G	.	2g	4b
.	.	.	.	4cc
.	2B	.	2d	[2dd
=64	=64	=64	=64	=64
1AA	1.A	1r	1e	2dd]
.	.	.	.	2cc#
1D	.	1D	[1f	1dd
.	2A	.	.	.
=65	=65	=65	=65	=65
2D	2d	1A	2f]	0r
2C#	2e	.	2e	.
2D	4d	1A	2f	.
.	4c	.	.	.
2F	4B	.	2d	.
.	4A	.	.	.
=66	=66	=66	=66	=66
2.E	2B	1G	1e	0r
.	1E	.	.	.
4D	.	.	.	.
2C	.	1A	2r	.
2D	2F	.	[2A	.
=67	=67	=67	=67	=67
2AA	2.E	1c	2A]	0r
2C	.	.	2.e	.
.	4F	.	.	.
[1GG	[1G	2B	.	.
.	.	.	4d	.
.	.	2G	2d	.
=68	=68	=68	=68	=68
1GG]	1G]	1B	1g	1d
1r	2D	1A	2f	1a
.	[2F	.	[2c	.
=69	=69	=69	=69	=69
0r	2F]	0c	4c]	1a
.	.	.	8d	.
.	.	.	8e	.
.	2F	.	1f	.
.	1C	.	.	1g
.	.	.	2e	.
=70	=70	=70	=70	=70
1D	0r	2A	1f	1a
.	.	2d	.	.
1A	.	2c	2e	[1cc
.	.	4A	2c	.
.	.	4B	.	.
=71	=71	=71	=71	=71
1A	0r	4c	2.e	2cc]
.	.	4d	.	.
.	.	2.e	.	4b
.	.	.	4f	4a
1G	.	.	1g	1b
.	.	4d	.	.
.	.	[2d	.	.
=72	=72	=72	=72	=72
1A	1r	2d]	2r	1a
.	.	2c#	2e	.
1D	1A	1d	2.f	2r
.	.	.	.	2a
.	.	.	4e	.
=73	=73	=73	=73	=73
0r	1.B-	0r	4d	2f
.	.	.	4c	.
.	.	.	1d	2.g
.	.	.	.	4d
.	2A	.	2c	2f
=74	=74	=74	=74	=74
0r	2G	0r	2B	2e
.	2F	.	2A	4d
.	.	.	.	4c
.	2E	.	1c	[1e
.	[2A	.	.	.
=75	=75	=75	=75	=75
1E	2A]	2r	1B	1e]
.	2G#	2e	.	.
[1F	2A	2c	1A	1r
.	2D	[2d	.	.
=76	=76	=76	=76	=76
2F]	2A	4d]	0r	0r
.	.	4A	.	.
2E	2G	2c	.	.
2D	2F	2B	.	.
2C	2E	[2A	.	.
=77	=77	=77	=77	=77
1BB	1D	2A]	1r	1b
.	.	2G#	.	.
1AA	2E	1A	[1e	[1cc
.	2e	.	.	.
=78	=78	=78	=78	=78
0r	2c	0r	2e]	2cc]
.	2.d	.	1f	2b
.	.	.	.	2a
.	4A	.	.	.
.	2c	.	2e	[2g
=79	=79	=79	=79	=79
0r	2B	1r	2d	2g]
.	1A	.	1c	2f
.	.	2r	.	2e
.	2E	2e	2B	2g
=80	=80	=80	=80	=80
0r	2.F	2c	2A	[0a
.	.	2.d	1f	.
.	4D	.	.	.
.	2D	.	.	.
.	.	4A	.	.
.	2A	2c	2e	.
=81	=81	=81	=81	=81
1r	2D	1d	2.f	0a]
.	1d	.	.	.
.	.	.	4d	.
1A	.	2r	1e	.
.	2c#	[2A	.	.
=82	=82	=82	=82	=82
2F	1d	2A]	1d	0r
2.G	.	1B-	.	.
.	2.d	.	1r	.
4D	.	.	.	.
2F	.	2A	.	.
.	4A	.	.	.
=83	=83	=83	=83	=83
2E	2c	2G	1r	2r
1D	2d	1F	.	2a
.	2A	.	2r	2f
[2C	2c	2E	2e	[2g
=84	=84	=84	=84	=84
2C]	2e	1G	2c	2g]
2BB-	2d	.	1d	2d
1AA	2r	1A	.	2f
.	2A	.	2c#	2e
=85	=85	=85	=85	=85
1D	2F	[0A	2d	1d
.	2D	.	1f	.
[1AA	1E	.	.	[1c#
.	.	.	[2e	.
=86	=86	=86	=86	=86
0AA]	1F	0A]	2e]	2c#]
.	.	.	1d	2d
.	1E	.	.	1e
.	.	.	2c#	.
=87	=87	=87	=87	=87
[0D	[0D	[0A	[0d	[0f#
=88	=88	=88	=88	=88
0D]	0D]	0A]	0d]	0f#]
==	==	==	==	==
*-	*-	*-	*-	*-
!!!CDT: 1525/^1526/-1594/2/2
!!!OCY: Italia
!!!AGN: Mass (Paraphrase)
!!!AST: renaissance, vocal
!!!ASW: Gregorian Mass
!!!PWK: Masses, Book Mantuan II
!!!RNB: Cadence finals: A
!!!YOR: Le Opere Complete, v. 19, p. 1
!!!YOO: Rome, Italy: Fratelli Scalera
!!!END: 1992//
!!!EED: John Miller
!!!YEC: Copyright 2000, John Miller
!!!YEN: United States of America
!!!YEM: Rights to all derivative electronic formats reserved.
!!!YEM: Refer to licensing agreement for further details.
!!!YEM: This file must be accompanied by the licensing agreement.
!!!YEM: A copy of the licensing agreement may be found at http://www.music-cog.ohio-state.edu/HumdrumDatabases/Palestrina/license.txt
!!!EMD: converted to Humdrum by Bret Aarden
